X: 133
T: Missa Sub tuum presidium / Gloria
N: Derived from Rue1029b-Missa_Sub_tuum_presidium-Gloria.krn
C: Pierre de la Rue
%%abc-version 2.0
%%abcx-abcm2ps-target-version 5.9.1 (29 Sep 2008)
%%abc-creator hum2abc beta
%%abcx-conversion-date 2019/02/17 08:01:15
%%abc-edited-by Jesse Rodin
%%abc-edited-by Will Watson 02/09/2011
%%abcx-initial-encoding-date 2012/01/21/
%%humdrum-veritas 1812996216
%%humdrum-veritas-data 2225420142
%%linebreak <none>
%%barnumbers 0
L: 1/4
M: 3/1
Q: 1/2=120
%%staves [1 2 3 4]
V: 1 clef=treble
V: 2 clef=treble-8
V: 3 clef=treble-8
V: 4 clef=bass
K: C
[V:1] E4G2A2B4 | 
[V:2] z12 | 
[V:3] z12 | 
[V:4] z12 | 
[V:1] A2c3BA2G2E2 | 
[V:2] A4c2d2e4- | 
[V:3] z12 | 
[V:4] z12 | 
[V:1] G2A2B4z2c2 | 
[V:2] e2c2d2e2A4 | 
[V:3] z12 | 
[V:4] z12 | 
[V:1] c2B3AGFE2A2 | 
[V:2] c2d2e4z2f2 | 
[V:3] z12 | 
[V:4] z12 | 
[V:1] A2G3FEDC2F2- | 
[V:2] f2e3dcBA2d2 | 
[V:3] z12 | 
[V:4] z12 | 
[V:1] F2E4DCB,2E2- | 
[V:2] d2c4BAG2c2- | 
[V:3] z12 | 
[V:4] z2A,,2C,2D,2E,2A,,2 | 
[V:1] EDCB,B,4z4 | 
[V:2] cBAGG2e3dcB | 
[V:3] z2E2G2A2B2E2 | 
[V:4] C,3D,E,2E,2E,4 | 
[V:1] z12 | 
[V:2] B4z4z4 | 
[V:3] G3AB2B2B4 | 
[V:4] z2E,2E,2G,3F,E,2- | 
[V:1] z12 | 
[V:2] z12 | 
[V:3] z2B2B2d3cB2- | 
[V:4] E,2D,2E,2B,,2D,2E,2 | 
[V:1] z12 | 
[V:2] z12 | 
[V:3] B2A2BcdBc2B2- | 
[V:4] C,4B,,4E,3F, | 
[V:1] z4E3EG2A2 | 
[V:2] z12 | 
[V:3] B2d2c2BAB2A2 | 
[V:4] G,E,F,2E,2G,4F,2 | 
[V:1] B2E2G2A2B2B2 | 
[V:2] z12 | 
[V:3] G2cBB2A4^G2 | 
[V:4] E,D,E,3D,C,2B,,4 | 
[V:1] c8z4 | 
[V:2] z2A2c3de2e2 | 
[V:3] A12 | 
[V:4] A,,12 | 
[V:1] z2A3AA2A2B2- | 
[V:2] f8z2d2- | 
[V:3] z12 | 
[V:4] z12 | 
[V:1] B2A2B3cdcBA | 
[V:2] ddd2d2e4d2 | 
[V:3] z12 | 
[V:4] z2F,2G,2E,2F,4 | 
[V:1] G2c3BB4A2 | 
[V:2] e3fgfedc4 | 
[V:3] z12 | 
[V:4] E,8z2F,2 | 
[V:1] B4z4z4 | 
[V:2] B2B4A2B4 | 
[V:3] z4z2d2e2B2 | 
[V:4] G,2E,2F,4E,4 | 
[V:1] z2G4G2E2G2- | 
[V:2] z12 | 
[V:3] c4B4z2G2- | 
[V:4] z2E,3F,G,F,/G,/A,2E,2- | 
[V:1] GABA/B/c2B4B2 | 
[V:2] z12 | 
[V:3] G2G2E2G3ABA/B/ | 
[V:4] E,2E,2A,,2E,3F,G,F,/G,/ | 
[V:1] E2G3ABA/B/c3A | 
[V:2] e4e2e2cded/e/ | 
[V:3] c2B4E2A2E2- | 
[V:4] A,2E,4E,2A,,2C,2- | 
[V:1] c2B4A4^G2 | 
[V:2] f2e3cd2e4 | 
[V:3] EFGF/G/A4B4 | 
[V:4] C,D,E,D,/E,/F,4E,4 | 
[V:1] A8z4 | 
[V:2] c4z2A3AA2 | 
[V:3] A8z4 | 
[V:4] A,,12 | 
[V:1] z2E3EE2E2E2- | 
[V:2] A2A4G2A2c2 | 
[V:3] z12 | 
[V:4] z12 | 
[V:1] E2D2E2G2FEDC | 
[V:2] BAGFE4D4 | 
[V:3] z12 | 
[V:4] z4z2E,2G,2A,2 | 
[V:1] B,2E4E4D2 | 
[V:2] E8z4 | 
[V:3] z2G2A2c2BAGF | 
[V:4] G,F,E,D,C,4z4 | 
[V:1] E4z2A2B2d2 | 
[V:2] z12 | 
[V:3] E2A4A3^G^G2 | 
[V:4] z2C,2D,2F,2E,D,C,B,, | 
[V:1] cBAGF2E4A2 | 
[V:2] z12 | 
[V:3] A4z2A4A2- | 
[V:4] A,,4z2C,2D,2F,2 | 
[V:1] B2d2cBAGF2E2- | 
[V:2] z2B2c2e2d2B2 | 
[V:3] A^G^G2A4z2G2 | 
[V:4] E,D,C,B,,A,,4z4 | 
[V:1] E2A4A3^GG2 | 
[V:2] c2e3dd2e4 | 
[V:3] A2c2B3AB4 | 
[V:4] z2C,2D,2F,2E,4 | 
[V:1] A4z2B3BB2 | 
[V:2] z2e3ee2e2e2- | 
[V:3] A4z4z4 | 
[V:4] A,,4z4z4 | 
[V:1] B2B4A2B2G2 | 
[V:2] e2d2e2c2d2e2 | 
[V:3] z12 | 
[V:4] z12 | 
[V:1] A2B2c2A2B2c2 | 
[V:2] f3de2f2d2e2 | 
[V:3] z12 | 
[V:4] z12 | 
[V:1] BGA2B3EE4 | 
[V:2] dBc2B4z4 | 
[V:3] z4z4z2B2- | 
[V:4] z4z2E,3E,E,2 | 
[V:1] z12 | 
[V:2] z12 | 
[V:3] BBB2B2B4A2 | 
[V:4] E,2E,4D,2E,2C,2 | 
[V:1] z12 | 
[V:2] z12 | 
[V:3] B2G2A2B2c2A2 | 
[V:4] D,2E,2F,3D,E,2F,2 | 
[V:1] z4z4B3B | 
[V:2] z12 | 
[V:3] B2c2BGA2B3E | 
[V:4] D,2E,2D,B,,C,2B,,4 | 
[V:1] B2B2G2c4A2- | 
[V:2] e3ee2e2c2f2- | 
[V:3] E4z4z4 | 
[V:4] z12 | 
[V:1] AF2DD4z4 | 
[V:2] f2d3B2GG4 | 
[V:3] z4B3BB2B2 | 
[V:4] z4z4E,3E, | 
[V:1] z12 | 
[V:2] z12 | 
[V:3] G2c4A3F2D | 
[V:4] E,2E,2C,2F,4D,2- | 
[V:1] z2d3B2GG4- | 
[V:2] d3B2GG4g2 | 
[V:3] D8z2d2- | 
[V:4] D,B,,2G,,G,,8 | 
[V:1] G4z2d3B2G | 
[V:2] d2g3ef2g3/f/ed | 
[V:3] dB2GA4B4 | 
[V:4] G,3E,2C,D,2G,,4 | 
[V:1] A2B2G3E2CD2 | 
[V:2] c2B3GG2z4 | 
[V:3] z2d3B2GA4 | 
[V:4] z2G,2G,2E,2F,4 | 
[V:1] E12 ||  
[V:2] G12 ||  
[V:3] B12 ||  
[V:4] E,12 ||  
[V:1]  [K:C] [K:clef=treble][M:2/1]E8 | 
[V:2]  [K:C] [K:clef=treble-8][M:2/1]z8 | 
[V:3]  [K:C] [K:clef=treble-8][M:2/1]z8 | 
[V:4]  [K:C] [K:clef=bass][M:2/1]z8 | 
[V:1] G4A4 | 
[V:2] z8 | 
[V:3] z8 | 
[V:4] z8 | 
[V:1] B4E4 | 
[V:2] E8 | 
[V:3] z8 | 
[V:4] z8 | 
[V:1] z2B2c4 | 
[V:2] G4A4 | 
[V:3] z8 | 
[V:4] z8 | 
[V:1] B2G3FE2- | 
[V:2] B4E4 | 
[V:3] z8 | 
[V:4] z8 | 
[V:1] E2D2E3D | 
[V:2] z2B2c3B | 
[V:3] z8 | 
[V:4] z8 | 
[V:1] B,2B2A2c2- | 
[V:2] G2d2c2e2- | 
[V:3] z8 | 
[V:4] z8 | 
[V:1] cBAGF2E2 | 
[V:2] edcBA4 | 
[V:3] z8 | 
[V:4] z8 | 
[V:1] z2E2D2F2- | 
[V:2] E2c2B2d2- | 
[V:3] z8 | 
[V:4] z8 | 
[V:1] FEDCB,2A,2- | 
[V:2] dcBAG2A2- | 
[V:3] z8 | 
[V:4] z8 | 
[V:1] A,2B2A2c2- | 
[V:2] A2d2c2e2- | 
[V:3] z8 | 
[V:4] z8 | 
[V:1] cBAGF2E2- | 
[V:2] edcBA4 | 
[V:3] z8 | 
[V:4] A,,8 | 
[V:1] E2c2B2d2- | 
[V:2] E2e2d2f2- | 
[V:3] z8 | 
[V:4] C,4D,4 | 
[V:1] dcBA^G3^F | 
[V:2] fedcB4 | 
[V:3] z8 | 
[V:4] E,8 | 
[V:1] A8 | 
[V:2] A8 | 
[V:3] E8 | 
[V:4] A,,8 | 
[V:1] z8 | 
[V:2] z8 | 
[V:3] G4A4 | 
[V:4] z2E,2F,4 | 
[V:1] z8 | 
[V:2] z8 | 
[V:3] B4E4 | 
[V:4] E,2G,3F,E,2- | 
[V:1] z8 | 
[V:2] z8 | 
[V:3] z2B2c4 | 
[V:4] E,2D,2E,2C,2 | 
[V:1] z8 | 
[V:2] z8 | 
[V:3] B2G3FE2- | 
[V:4] D,2E,4G,2 | 
[V:1] z8 | 
[V:2] z8 | 
[V:3] E2D2E2B2 | 
[V:4] F,4E,2G,2 | 
[V:1] z8 | 
[V:2] z8 | 
[V:3] A2c3BAG | 
[V:4] F,2A,3G,F,E, | 
[V:1] z8 | 
[V:2] z8 | 
[V:3] F2E4A2 | 
[V:4] D,2E,2A,,4 | 
[V:1] z8 | 
[V:2] z8 | 
[V:3] G2B2A2c2- | 
[V:4] z2D,2C,2E,2- | 
[V:1] E8 | 
[V:2] z8 | 
[V:3] cBAGA2B2 | 
[V:4] E,D,C,B,,A,,2G,,2- | 
[V:1] G4A4 | 
[V:2] z8 | 
[V:3] E2c2A2d2- | 
[V:4] G,,2E,2D,2F,2- | 
[V:1] B8 | 
[V:2] z8 | 
[V:3] dcBA^G3^F | 
[V:4] F,E,D,C,B,,4 | 
[V:1] c6c2 | 
[V:2] e6e2 | 
[V:3] A8- | 
[V:4] A,,8- | 
[V:1] c2c2c2c2- | 
[V:2] e2e4dc | 
[V:3] A8 | 
[V:4] A,,8 | 
[V:1] c2B4AG | 
[V:2] e4B4- | 
[V:3] z8 | 
[V:4] z8 | 
[V:1] B2E2G4 | 
[V:2] B2g3fe2- | 
[V:3] z8 | 
[V:4] z8 | 
[V:1] F4E2c2- | 
[V:2] e2d2e2A2 | 
[V:3] z8 | 
[V:4] z8 | 
[V:1] cBA4^G2 | 
[V:2] c4B4 | 
[V:3] z8 | 
[V:4] z8 | 
[V:1] A2E2E2G2- | 
[V:2] A2c2c2B2- | 
[V:3] z2A2A2E2 | 
[V:4] z8 | 
[V:1] GFE4D2 | 
[V:2] B2G2A4 | 
[V:3] G4F4 | 
[V:4] z8 | 
[V:1] E4z2E2 | 
[V:2] B4z4 | 
[V:3] E4z2c2 | 
[V:4] z4z2A,2 | 
[V:1] E2G3FE2- | 
[V:2] z8 | 
[V:3] c2B4G2 | 
[V:4] A,2E,2G,4 | 
[V:1] E2D2E4 | 
[V:2] z2A4G2 | 
[V:3] A4B4 | 
[V:4] F,4E,4 | 
[V:1] A,2c2c2B2- | 
[V:2] A2e2e2g2- | 
[V:3] z8 | 
[V:4] z2A,2A,2E,2 | 
[V:1] B2AGA4 | 
[V:2] gfe4d2 | 
[V:3] z8 | 
[V:4] G,4F,4 | 
[V:1] G8 | 
[V:2] e8 | 
[V:3] z2c2c2B2- | 
[V:4] E,8 | 
[V:1] z4E4 | 
[V:2] d2B2c3B/A/ | 
[V:3] B2G2A4 | 
[V:4] z8 | 
[V:1] E2E4E2 | 
[V:2] G8 | 
[V:3] B8 | 
[V:4] E,4E,2E,2- | 
[V:1] G3AB4 | 
[V:2] z2e2d2B2 | 
[V:3] B4B2B2- | 
[V:4] E,2E,2G,2G,2 | 
[V:1] E4z4 | 
[V:2] c4B2e2- | 
[V:3] B2A2B2c2- | 
[V:4] A,4E,4 | 
[V:1] z4z2E2 | 
[V:2] e2d2c4 | 
[V:3] c2B4A2 | 
[V:4] z8 | 
[V:1] G3AB2B2 | 
[V:2] B2e2e2d2 | 
[V:3] B8 | 
[V:4] z2E,2G,2G,2 | 
[V:1] E4z4 | 
[V:2] c2c2B2e2- | 
[V:3] z4z2E2 | 
[V:4] A,2A,2E,4 | 
[V:1] z2B4A2 | 
[V:2] eBd2c4 | 
[V:3] G2G2A2A2 | 
[V:4] z8 | 
[V:1] B4B4 | 
[V:2] B8 | 
[V:3] E4B4- | 
[V:4] z2E,4D,2 | 
[V:1] c4c4 | 
[V:2] e6e2 | 
[V:3] B4A4 | 
[V:4] E,4C,4 | 
[V:1] d6B2 | 
[V:2] d4z2G2- | 
[V:3] B4B2d2- | 
[V:4] B,,6G,,2 | 
[V:1] B4z2d2- | 
[V:2] GABcd2G2 | 
[V:3] dcBAG3A | 
[V:4] G,,8 | 
[V:1] dcBAG2A2 | 
[V:2] d4e4 | 
[V:3] B4c4 | 
[V:4] z8 | 
[V:1] B4c4 | 
[V:2] z2d2e2f2 | 
[V:3] B4z2A2 | 
[V:4] z8 | 
[V:1] B4z2B2 | 
[V:2] g3fd2g2- | 
[V:3] G2B3cdc/d/ | 
[V:4] z2G,3F,E,D, | 
[V:1] c2BAG2B2- | 
[V:2] g2f4e2- | 
[V:3] e3dB2G2 | 
[V:4] C,2D,2E,4 | 
[V:1] B2A4^G2 | 
[V:2] e2d2e4 | 
[V:3] A4B4 | 
[V:4] F,4E,4 | 
[V:1] [M:3/1]A4E4F4 | 
[V:2] c12 | 
[V:3] [M:3/1]A12 | 
[V:4] z12 | 
[V:1] E4G4A4 | 
[V:2] [M:3/1]z4B4c4 | 
[V:3] z12 | 
[V:4] z12 | 
[V:1] G2B4c2A4 | 
[V:2] B2e4c2d4 | 
[V:3] z4E4F4 | 
[V:4] z12 | 
[V:1] G8z4 | 
[V:2] e4B4c4 | 
[V:3] E4G4A4 | 
[V:4] z12 | 
[V:1] z12 | 
[V:2] B2e4c2d4 | 
[V:3] G2B4c2A4 | 
[V:4] [M:3/1]z4E,4F,4 | 
[V:1] z4E4D4 | 
[V:2] e4c2B2A4 | 
[V:3] B4E4F4 | 
[V:4] E,4G,4A,4 | 
[V:1] E2G4B2A4 | 
[V:2] B8z4 | 
[V:3] E4G4A4 | 
[V:4] G,2E,4G,2F,4 | 
[V:1] B6G2A4 | 
[V:2] z12 | 
[V:3] G2B4c2A4 | 
[V:4] E,8z4 | 
[V:1] G2B4c2A4 | 
[V:2] e2e4c2d4 | 
[V:3] B4z4z4 | 
[V:4] E,2G,4A,2F,4 | 
[V:1] G8E2F2 | 
[V:2] e8z4 | 
[V:3] E2F2G2A2B4 | 
[V:4] E,12 | 
[V:1] G2A2B4E4 | 
[V:2] e4d2c2B4 | 
[V:3] E8E4 | 
[V:4] z12 | 
[V:1] c6B2B2A2 | 
[V:2] A8E4 | 
[V:3] A2B2c2d2e4 | 
[V:4] z12 | 
[V:1] A8G4 | 
[V:2] c6B2B2A2 | 
[V:3] A8z4 | 
[V:4] A,,2B,,2C,2D,2E,4 | 
[V:1] A8B4 | 
[V:2] A6G2F2E2 | 
[V:3] c6B2B2A2 | 
[V:4] A,,4D,8 | 
[V:1] c4d6B2 | 
[V:2] E8D4 | 
[V:3] A8^G4 | 
[V:4] C,4B,,8 | 
[V:1] c4B2A2G2F2 | 
[V:2] E12 | 
[V:3] A12 | 
[V:4] A,,8z4 | 
[V:1] E8z4 | 
[V:2] z12 | 
[V:3] c4B2A2G2F2 | 
[V:4] A,4G,2F,2E,2D,2 | 
[V:1] c4B2A2G2F2 | 
[V:2] e4d2c2B2A2 | 
[V:3] E8z4 | 
[V:4] C,8z4 | 
[V:1] E8z4 | 
[V:2] e6d2c2B2 | 
[V:3] c4B2A2G2F2 | 
[V:4] A,4G,2F,2E,2D,2 | 
[V:1] A4G2F2E2D2 | 
[V:2] A6B2G4 | 
[V:3] c8z4 | 
[V:4] F,4E,2D,2C,2B,,2 | 
[V:1] F4E2D2C2B,2 | 
[V:2] c6d2e4 | 
[V:3] A6F2G4 | 
[V:4] A,,8z4 | 
[V:1] A,4A8 | 
[V:2] c4f6e2 | 
[V:3] A8D4 | 
[V:4] z4D,6A,,2 | 
[V:1] G4F6E2 | 
[V:2] e8d4 | 
[V:3] E4F6G2 | 
[V:4] C,4D,6A,,2 | 
[V:1] E4c8 | 
[V:2] e12- | 
[V:3] A12 | 
[V:4] A,,4A,6E,2 | 
[V:1] B4A6G2 | 
[V:2] e12 | 
[V:3] B4c6B2 | 
[V:4] G,4A,6E,2 | 
[V:1] G12 |]  
[V:2] e12 |]  
[V:3] B12 |]  
[V:4] E,12 |]  



